X:258
T:Kaw River
C:Traditional
N:Transcribed by Mike Stangeland
R:bluegrass
L:1/8
Q:1/4=230
M:4/4
K:D
z8 | "D"FA zF A2 AF | "G"A2 FA FD B,D | "D"A,D zF ED DB | "A"AF EA FD B,D | "D"FA zF A2 Bc | 
dA FD ED B,2 | "A"A,B, DF ED FB | "A"AF EF "D"D4 | "D"aa aa a2 fa | "G"z2 fa fd BA | 
"D"a2 a2 af af | "A"bf af ed Bd | "D"fa zf a2 af | a2 fa fd Bd | "A"fa zf af bf | 
"A"af ef "D"[f2d2] (3ABc |: "D"d2 ef d2 ef | "G"d2 ef ed Bc | "D"de fd ed fd | 
"A"AB AF DF Ac | "D"d2 ef d2 ef | "G"d2 {=f}^f2 ed Bc | "A"de fd ed fd | "A"AB AG "D"FD D2 :| z8 | 
z8 | 


